X: 144
T:Bay Tree
M:3/4
L:1/4
C:Andy Cutting
R:Waltz
Z:Steve Mansfield
K:G
B2A/B/ | d2B/A/ | GF/G/A/c/ | BAG/A/ | B2A/B/ | d2B/A/ |
GF/G/A/B/ |1A3 :|2 A2G/A/ |: BG/D/G/B/ | cA/F/A/c/ | dB/G/B/d/ |
e2d/c/ | BG/B/d/B/ | cA/c/e/c/ | dB/G/B/d/ |1 e2d/c/ :|2 e3 ||

